src/images/icons/Settings.svg

<svg width="37" height="37" viewBox="0 0 37 37" fill="none" xmlns="http://www.w3.org/2000/svg">
<rect width="37" height="37" rx="18.5" fill="white"/>
<path d="M26.5991 19C26.5991 18.747 26.5883 18.505 26.5667 18.252L28.5753 16.701C29.0072 16.371 29.126 15.755 28.8561 15.271L26.8367 11.718C26.7072 11.485 26.4978 11.309 26.2486 11.2237C25.9995 11.1384 25.7282 11.1499 25.4868 11.256L23.1651 12.257C22.7655 11.971 22.3444 11.718 21.9016 11.509L21.5885 8.968C21.5237 8.418 21.0593 8 20.5194 8H16.4914C15.9407 8 15.4763 8.418 15.4115 8.968L15.0984 11.509C14.6556 11.718 14.2345 11.971 13.8349 12.257L11.5132 11.256C11.0164 11.036 10.4333 11.234 10.1633 11.718L8.14395 15.282C7.87398 15.766 7.99276 16.371 8.42471 16.712L10.4333 18.263C10.3885 18.757 10.3885 19.2541 10.4333 19.748L8.42471 21.299C7.99276 21.629 7.87398 22.245 8.14395 22.729L10.1633 26.282C10.4333 26.766 11.0164 26.964 11.5132 26.744L13.8349 25.743C14.2345 26.029 14.6556 26.282 15.0984 26.491L15.4115 29.032C15.4763 29.582 15.9407 30 16.4806 30H20.5086C21.0485 30 21.5129 29.582 21.5777 29.032L21.8908 26.491C22.3336 26.282 22.7547 26.029 23.1543 25.743L25.476 26.744C25.9728 26.964 26.5559 26.766 26.8259 26.282L28.8453 22.729C29.1152 22.245 28.9964 21.64 28.5645 21.299L26.5559 19.748C26.5883 19.495 26.5991 19.253 26.5991 19ZM18.5432 22.85C16.459 22.85 14.7636 21.123 14.7636 19C14.7636 16.877 16.459 15.15 18.5432 15.15C20.6274 15.15 22.3228 16.877 22.3228 19C22.3228 21.123 20.6274 22.85 18.5432 22.85Z" fill="black"/>
</svg>

<svg xmlns="http://www.w3.org/2000/svg" width="37" height="37" fill="none"><rect width="37" height="37" fill="#fff" rx="18.5"/><path fill="#000" d="M26.6 19c0-.253-.012-.495-.033-.748l2.008-1.551c.432-.33.551-.946.281-1.43l-2.02-3.553a1.07 1.07 0 0 0-.587-.494 1.048 1.048 0 0 0-.762.032l-2.322 1.001c-.4-.286-.82-.539-1.263-.748l-.314-2.541A1.09 1.09 0 0 0 20.52 8h-4.028c-.55 0-1.015.418-1.08.968l-.313 2.541a8.158 8.158 0 0 0-1.263.748l-2.322-1.001a1.056 1.056 0 0 0-1.35.462l-2.019 3.564a1.123 1.123 0 0 0 .28 1.43l2.01 1.551a8.22 8.22 0 0 0 0 1.485l-2.01 1.551a1.12 1.12 0 0 0-.28 1.43l2.02 3.553c.27.484.852.682 1.35.462l2.32-1.001c.4.286.822.539 1.264.748l.313 2.541c.065.55.53.968 1.07.968h4.028a1.09 1.09 0 0 0 1.069-.968l.313-2.541a8.158 8.158 0 0 0 1.263-.748l2.322 1.001c.497.22 1.08.022 1.35-.462l2.02-3.553a1.123 1.123 0 0 0-.282-1.43l-2.008-1.551c.032-.253.043-.495.043-.748Zm-8.057 3.85c-2.084 0-3.78-1.727-3.78-3.85s1.696-3.85 3.78-3.85c2.084 0 3.78 1.727 3.78 3.85s-1.696 3.85-3.78 3.85Z"/></svg>
